!!!!SEGMENT: pl-kk--kk-i-382--018-001_anonim--nro-6-kyrie.krn
!!!id: 18xx:1485
!!!COM: Anonim
!!!COM-rism: pe30004985
!!!CDT:
!!!CNT:
!!!OTL: Nro 6 Kyrie
!!!PDT:
!!!SMS-siglum: PL-Kk
!!!SMS-shelfmark: Kk.I.382
!!!NIFC-rismID: 1001139134
!!!URL-scan: http://repozytorium.nifc.pl/skany/pl-kk-nut--i-382
!!!ONB-nifc: UWAGA: obsada: S (T 1), A (B 1), T 2, B 2; S (T 1): skan 0017; A (B 1): skan 0162; T 2: skan 0089; B 2: skan 0234
!!!SMS-variant:
!!!SMS-altvar:
**kern	**text	**dynam	**kern	**text	**kern	**text	**kern	**text
*part4	*part4	*part4	*part3	*part3	*part2	*part2	*part1	*part1
*staff4	*staff4	*	*staff3	*staff3	*staff2	*staff2	*staff1	*staff1
*I"Basso II	*	*	*I"Tenore II	*	*I"Alto vel Basso I	*	*I"Soprano vel Tenore I.	*
*I'B 2	*	*	*I'T 2	*	*I'A (B 1)	*	*I'S (T 1)	*
*clefF4	*	*	*clefC4	*	*clefC3	*	*clefC1	*
*k[b-]	*	*	*k[b-]	*	*k[b-]	*	*k[b-]	*
*F:	*	*	*F:	*	*F:	*	*F:	*
*M4/4	*	*	*M4/4	*	*M4/4	*	*M4/4	*
*met(C.)	*	*	*met(C.)	*	*met(C.)	*	*met(C.)	*
=1	=1	=1	=1	=1	=1	=1	=1	=1
*2\right	*	*	*2\right	*	*2\right	*	*2\right	*
!	!	!	!	!	!	!	!LO:TX:t=P:problem:all\right:global	!
!LO:TX:t=P:problem:all\right:global	!	!	!LO:TX:t=P:problem:all\right:global	!	!LO:TX:t=P:problem:all\right:global	!	!	!
!LO:TX:a:t=P:problem:w źródle ta adnotacja zapisana przed pierwszym taktem, przed pięciolinią	!	!	!LO:TX:a:t=P:problem:w źródle ta adnotacja zapisana przed pierwszym taktem, na pięciolinii	!	!LO:TX:a:t=P:problem:w źródle ta adnotacja zapisana przed pierwszym taktem, przed pięciolinią	!	!LO:TX:a:t=P:problem:w źródle ta adnotacja zapisana przed pierwszym taktem, na pięciolinii	!
!LO:TX:a:i:t=Kyrie	!	!	!LO:TX:a:i:t=Kyrie	!	!LO:TX:a:i:t=Kyrie	!	!LO:TX:a:i:t=Kyrie	!
4.F\	Ky-	.	4.c\	Ky-	4.a\	Ky-	4.cc\	Ky-
8B-\	-ri-	.	8c\	-ri-	8b-\	-ri-	8dd\	-ri-
4c\	-e	.	4c\	-e	4a\	-e	4cc\	-e
4C/	e-	.	4c\	e-	4g\	e-	4b-\	e-
=2	=2	=2	=2	=2	=2	=2	=2	=2
4F\	-lei-	.	4c\	-lei-	4g\	-lei-	4b-\	-lei-
4F\	-son	.	4c\	-son	4f\	-son	4a\	-son
4F\	Ky-	.	4c\	Ky-	4a\	Ky-	4cc\	Ky-
4F\	-ri-	.	4c\	-ri-	4f\	-ri-	4a\	-ri-
=3	=3	=3	=3	=3	=3	=3	=3	=3
4C/	-e	.	4c\	-e	4e\	-e	4g\	-e
4C/	e-	.	4c\	e-	4f\	e-	4a\	e-
4E\	-le-	.	2c\	-lei-	(>8a\L	-le-	8cc\L	-le-
.	.	.	.	.	8g\J)	.	8b-\J	.
4C/	-i-	.	.	.	(>8f\L	-i-	8a\L	-i-
.	.	.	.	.	8e\J)	.	8g\J	.
!	!	!	!	!	!	!	!LO:LB:g=original	!
=4	=4	=4	=4	=4	=4	=4	=4	=4
2F\	-son	.	2c\	-son	2f\	-son.	2a\	-son
!LO:TX:a:t=P:problem:w źródle "p." zapisane na pięciolinii	!	!	!	!	!	!	!	!
!	!	!LO:DY:rj	!	!	!	!	!	!
!	!	!LO:DY:b:t=p.	!	!	!	!	!	!
4d\	Ky-	p	4d\	Ky-	2r	.	4ff\	Ky-
4c\	-ri-	.	4c\	-ri-	.	.	4ee\	-ri-
=5	=5	=5	=5	=5	=5	=5	=5	=5
4Bn\	-e	.	4Bn\	-e	1r	.	4dd\	-e
4c\	e-	.	4c\	e-	.	.	4ee\	e-
!	!	!	!	!	!LO:TX:a:t=1.	!	!	!
4B\	-le-	.	4B\	-le-	.	.	4dd\	-le-
4A\	-i-	.	4A\	-i-	.	.	4cc\	-i-
!LO:LB:g=original	!	!	!LO:LB:g=original	!	!	!	!	!
=6	=6	=6	=6	=6	=6	=6	=6	=6
2G\	-son	.	2G/	-son	2r	.	2bn\	-son
!LO:TX:a:t=P:problem:w źródle "f." zapisane na pięciolinii	!	!	!	!	!	!	!	!
!	!	!LO:DY:rj	!	!	!	!	!	!
!	!	!LO:DY:b:t=f.	!	!	!	!	!	!
4C/	Ky-	f	4e\	Ky-	4g\	Ky-	2r	.
4D/	-ri-	.	4d\	-ri-	4f\	-ri-	.	.
!	!	!	!	!	!LO:LB:g=original	!	!	!
=7	=7	=7	=7	=7	=7	=7	=7	=7
4E\	-e	.	4c\	-e	4e\	-e	1r	.
4F\	e-	.	4d\	e-	4f\	e-	.	.
!	!	!	!	!	!	!	!LO:TX:b:t=1.	!
4G\	-le-	.	4c\	-le-	4e\	-le-	.	.
4GG/	-i-	.	4Bn\	-i-	4d\	-i-	.	.
=8	=8	=8	=8	=8	=8	=8	=8	=8
2C/	-son	.	2c\	-son	2e\	-son	2r	.
4F\	Ky-	.	4A\	Ky-	4f\	Ky-	4ff\	Ky-
4F\	-ri-	.	4c\	-ri-	4a\	-ri-	4cc\	-ri-
=9	=9	=9	=9	=9	=9	=9	=9	=9
4BB-/	-e	.	4d\	-e	4b-\	-e	4dd\	-e
4BB-/	e-	.	4d\	e-	4a\	e-	4cc\	e-
4BB-/	-le-	.	2d\	-lei-	4g\	-le-	4b-X\	-le-
4BBn/	-i-	.	.	.	4f\	-i-	4a\	-i-
!	!	!	!	!	!	!	!LO:LB:g=original	!
=10	=10	=10	=10	=10	=10	=10	=10	=10
2C/	-son	.	2c\	-son	2e\	-son	2g\	-son
(>2C/	Ky-	.	2e\	e-	2g\	e-	2b-\	e-
=11	=11	=11	=11	=11	=11	=11	=11	=11
4F\)	.	.	1c	-le-	4f\	-le-	4a\	-le-
4E\	-ri-	.	.	.	4g\	-i-	4b-\	-i-
4F\	-e	.	.	.	4a\	-son	4cc\	-son
4BB-/	e-	.	.	.	(>8b-\L	e-	(>8dd\L	e-
.	.	.	.	.	8g\J)	.	8b-X\J)	.
!LO:LB:g=original	!	!	!	!	!	!	!	!
=12	=12	=12	=12	=12	=12	=12	=12	=12
1C	-lei-	.	1c	-i-	2f\	-le-	2a\	-le-
.	.	.	.	.	2e\	-i-	2g\	-i-
=13	=13	=13	=13	=13	=13	=13	=13	=13
!	!	!	!	!	!	!	!LO:TX:a:t=P:problem:w źródle ta adnotacja zapisana za taktem 13, na pięciolinii	!
!	!	!	!	!	!	!	!LO:TX:b:i:t=Seque Christe V&colon; S&colon;	!
1F	-son.	.	1c	-son.	1f	-son.	1a	-son.
!	!	!	!LO:LB:g=original	!	!LO:LB:g=original	!	!LO:PB:g=original	!
==14	==14	==14	==14	==14	==14	==14	==14	==14
*M4/4	*	*	*M4/4	*	*M4/4	*	*M4/4	*
*met(C.)	*	*	*met(C.)	*	*met(C.)	*	*met(C.)	*
!	!	!	!	!	!	!	!LO:TX:a:t=P:problem:w źródle ta adnotacja zapisana przed taktem 14, na pięciolinii i częściowo przed pięciolinią	!
!	!	!	!	!	!	!	!LO:TX:a:i:t=Christe	!
1A	Chri-	.	1A	Chri-	1c	Chri-	1f	Chri-
=15	=15	=15	=15	=15	=15	=15	=15	=15
2c\	-ste	.	2c\	-ste	2e\	-ste	2g\	-ste
2c\	e-	.	2c\	e-	2f\	e-	2a\	e-
=16	=16	=16	=16	=16	=16	=16	=16	=16
2e\	-le-	.	2e\	-le-	2g\	-le-	(>8cc\L	-le-
.	.	.	.	.	.	.	8b-\	.
.	.	.	.	.	.	.	8a\	.
.	.	.	.	.	.	.	8b-\J)	.
2c\	-i-	.	2c\	-i-	2e\	-i-	(>4g\	-i-
.	.	.	.	.	.	.	4cc\)	.
=17	=17	=17	=17	=17	=17	=17	=17	=17
4c\	-son	.	4c\	-son	4f\	-son	4a\	-son
4c\	e-	.	4c\	e-	4f\	e-	4f/	e-
4c\	-le-	.	4c\	-le-	2f\	-lei-	4a\	-le-
4d\	-i-	.	4d\	-i-	.	.	4bn\	-i-
=18	=18	=18	=18	=18	=18	=18	=18	=18
2G\	-son	.	2G/	-son	2e\	-son	2cc\	-son
2G\	Chri-	.	2G/	Chri-	2e\	chri-	2cc\	Chri-
=19	=19	=19	=19	=19	=19	=19	=19	=19
2F\	-ste	.	2F/	-ste	2f\	-ste	2a\	-ste
2c\	e-	.	2c\	e-	2g\	e-	2b-X\	e-
!LO:LB:g=original	!	!	!	!	!	!	!LO:LB:g=original	!
=20	=20	=20	=20	=20	=20	=20	=20	=20
4F\	-le-	.	4F/	-le-	(>4a\	-le-	(>4cc\	-le-
4G\	.	.	4G/	.	4g\	.	4b-\	.
4A\	.	.	4A/	.	4f\	.	4a\	.
4F\	.	.	4F/	.	4a\	.	4cc\	.
=21	=21	=21	=21	=21	=21	=21	=21	=21
4E\	.	.	4E/	.	4g\	.	4b-\	.
4F\	.	.	4F/	.	4f\	.	4a\)	.
4G\	.	.	4G/	.	4e\)	.	(>4g\	-i-
4E\	-i-	.	4E/	-i-	4g\	-i-	4b-\)	.
!	!	!	!	!	!LO:LB:g=original	!	!	!
=22	=22	=22	=22	=22	=22	=22	=22	=22
2F\	-son	.	2F/	-son	2f\	-son	2a\	-son
2F\	Chri-	.	2F/	Chri-	2f\	Chri-	2a\	Chri-
!	!	!	!LO:LB:g=original	!	!	!	!	!
=23	=23	=23	=23	=23	=23	=23	=23	=23
2A\	-ste	.	2A\	-ste	2f\	-ste	2cc\	-ste
2B-\	e-	.	2B-\	e-	2f\	e-	2dd\	e-
=24	=24	=24	=24	=24	=24	=24	=24	=24
1c	-lei-	.	1c	-lei-	1f	-lei-	1ee-X	-lei-
=25	=25	=25	=25	=25	=25	=25	=25	=25
2B-\	-son	.	2B-\	-son	2f\	-son	2dd\	-son
2Bn\	Chri-	.	2Bn\	Chri-	2g\	Chri-	2dd\	Chri-
=26	=26	=26	=26	=26	=26	=26	=26	=26
2Bn\	-ste	.	2Bn\	-ste	2g\	-ste	2dd\	-ste
2c\	e-	.	2c\	e-	2g\	e-	2een\	e-
!	!	!	!	!	!	!	!LO:LB:g=original	!
=27	=27	=27	=27	=27	=27	=27	=27	=27
1d	-lei-	.	1d	-lei-	1g	-lei-	1ff	-lei-
!LO:LB:g=original	!	!	!	!	!	!	!	!
=28	=28	=28	=28	=28	=28	=28	=28	=28
2c\	-son	.	2c\	-son	2g\	-son	2ee\	-son
2c\	Chri-	.	2c\	e-	2g\	e-	2ee\	Chri-
=29	=29	=29	=29	=29	=29	=29	=29	=29
1F	-ste	.	1F	-le-	(>4a\	-le-	(>4ff\	-ste
.	.	.	.	.	4g\)	.	4ee\)	.
.	.	.	.	.	(>4f\	-i-	(>4dd\	e-
.	.	.	.	.	4e\)	.	4cc\)	.
!	!	!	!	!	!LO:LB:g=original	!	!	!
=30	=30	=30	=30	=30	=30	=30	=30	=30
(>2c\	e-	.	2c\	.	2g\	-son	(>2b-\	-le-
2F\)	.	.	2F/	.	2f\	e-	2a\)	.
=31	=31	=31	=31	=31	=31	=31	=31	=31
1c	-lei-	.	1c	-i-	2f\	-le-	1g	-i-
.	.	.	.	.	2e\	-i-	.	.
=32	=32	=32	=32	=32	=32	=32	=32	=32
!LO:TX:a:t=P:problem:w źródle ta adnotacja zapisana za taktem 32, na pięciolinii	!	!	!LO:TX:a:t=P:problem:w źródle ta adnotacja zapisana za taktem 32, na pięciolinii	!	!	!	!LO:TX:a:t=P:problem:w źródle ta adnotacja zapisana za taktem 32, na pięciolinii	!
!LO:TX:b:i:t=Kyrie Da Capo. V&colon; S&colon;	!	!	!LO:TX:b:i:t=Kyrie da \nCapo.	!	!	!	!LO:TX:b:i:t=Kyrie Da Capo.	!
1F	-son.	.	1F	-son.	1f	-son.	1a	-son.
!	!	!	!LO:LB:g=original	!	!	!	!	!
==33	==33	==33	==33	==33	==33	==33	==33	==33
*	*	*	*	*	*M4/4	*	*	*
*	*	*	*	*	*met(C.)	*	*	*
4.F\yy	Ky-	.	4.c\yy	Ky-	4.a\	Ky-	4.cc\yy	Ky-
8B-\yy	-ri-	.	8c\yy	-ri-	8b-\	-ri-	8dd\yy	-ri-
4c\yy	-e	.	4c\yy	-e	4a\	-e	4cc\yy	-e
4C/yy	e-	.	4c\yy	e-	4g\	e-	4b-\yy	e-
=34	=34	=34	=34	=34	=34	=34	=34	=34
4F\yy	-lei-	.	4c\yy	-lei-	4g\	-lei-	4b-\yy	-lei-
4F\yy	-son	.	4c\yy	-son	4f\	-son	4a\yy	-son
4F\yy	Ky-	.	4c\yy	Ky-	4a\	Ky-	4cc\yy	Ky-
4F\yy	-ri-	.	4c\yy	-ri-	4f\	-ri-	4a\yy	-ri-
=35	=35	=35	=35	=35	=35	=35	=35	=35
4C/yy	-e	.	4c\yy	-e	4e\	-e	4g\yy	-e
4C/yy	e-	.	4c\yy	e-	4f\	e-	4a\yy	e-
4E\yy	-le-	.	2c\yy	-lei-	(>8a\L	-le-	8cc\Lyy	-le-
.	.	.	.	.	8g\J)	.	8b-\Jyy	.
4C/yy	-i-	.	.	.	(>8f\L	-i-	8a\Lyyyy	-i-
.	.	.	.	.	8e\J)	.	8g\Jyy	.
!	!	!	!	!	!LO:LB:g=original	!	!	!
=36	=36	=36	=36	=36	=36	=36	=36	=36
2F\yy	-son	.	2c\yy	-son	2f\	-son.	2a\yy	-son
!LO:TX:a:t=P:problem:w źródle "p." zapisane na pięciolinii	!	!	!	!	!	!	!	!
!	!	!LO:DY:rj	!	!	!	!	!	!
!	!	!LO:DY:b:t=p.	!	!	!	!	!	!
4d\yy	Ky-	p	4d\yy	Ky-	2r	.	4ff\yy	Ky-
4c\yy	-ri-	.	4c\yy	-ri-	.	.	4ee\yy	-ri-
=37	=37	=37	=37	=37	=37	=37	=37	=37
4Bn\yy	-e	.	4Bn\yy	-e	1r	.	4dd\yy	-e
4c\yy	e-	.	4c\yy	e-	.	.	4ee\yy	e-
!	!	!	!	!	!LO:TX:b:t=1.	!	!	!
4B\yy	-le-	.	4B\yy	-le-	.	.	4dd\yy	-le-
4A\yy	-i-	.	4A\yy	-i-	.	.	4cc\yy	-i-
=38	=38	=38	=38	=38	=38	=38	=38	=38
2G\yy	-son	.	2G/yy	-son	2r	.	2bn\yy	-son
!LO:TX:a:t=P:problem:w źródle "f." zapisane na pięciolinii	!	!	!	!	!	!	!	!
!	!	!LO:DY:rj	!	!	!	!	!	!
!	!	!LO:DY:b:t=f.	!	!	!	!	!	!
4C/yy	Ky-	f	4e\yy	Ky-	4g\	Ky-	2ryy	.
4D/yy	-ri-	.	4d\yy	-ri-	4f\	-ri-	.	.
=39	=39	=39	=39	=39	=39	=39	=39	=39
!	!	!	!	!	!	!	!LO:TX:b:t=1.	!
4E\yy	-e	.	4c\yy	-e	4e\	-e	1ryy	.
4F\yy	e-	.	4d\yy	e-	4f\	e-	.	.
4G\yy	-le-	.	4c\yy	-le-	4e\	-le-	.	.
4GG/yy	-i-	.	4Bn\yy	-i-	4d\	-i-	.	.
=40	=40	=40	=40	=40	=40	=40	=40	=40
2C/yy	-son	.	2c\yy	-son	2e\	-son	2ryy	.
4F\yy	Ky-	.	4A\yy	Ky-	4f\	Ky-	4ff\yy	Ky-
4F\yy	-ri-	.	4c\yy	-ri-	4a\	-ri-	4cc\yy	-ri-
=41	=41	=41	=41	=41	=41	=41	=41	=41
4BB-/yy	-e	.	4d\yy	-e	4b-\	-e	4dd\yy	-e
4BB-/yy	e-	.	4d\yy	e-	4a\	e-	4cc\yy	e-
4BB-/yy	-le-	.	2d\yy	-lei-	4g\	-le-	4b-X\yy	-le-
4BBn/yy	-i-	.	.	.	4f\	-i-	4a\yy	-i-
!	!	!	!	!	!LO:LB:g=original	!	!	!
=42	=42	=42	=42	=42	=42	=42	=42	=42
2C/yy	-son	.	2c\yy	-son	2e\	-son	2g\yy	-son
(>2C/yy	Ky-	.	2e\yy	e-	2g\	e-	2b-\yy	e-
=43	=43	=43	=43	=43	=43	=43	=43	=43
4F\)yy	.	.	1cyy	-le-	4f\	-le-	4a\yy	-le-
4E\yy	-ri-	.	.	.	4g\	-i-	4b-\yy	-i-
4F\yy	-e	.	.	.	4a\	-son	4cc\yy	-son
4BB-/yy	e-	.	.	.	(>8b-\L	e-	(8dd\Lyy	e-
.	.	.	.	.	8g\J)	.	8b-X\J)yy	.
=44	=44	=44	=44	=44	=44	=44	=44	=44
1Cyy	-lei-	.	1cyy	-i-	2f\	-le-	2a\yy	-le-
.	.	.	.	.	2e\	-i-	2g\yy	-i-
=45	=45	=45	=45	=45	=45	=45	=45	=45
1Fyy	-son.	.	1cyy	-son.	1f	-son.	1ayy	-son.
!	!	!	!	!	!LO:TX:a:t=P:problem:w źródle ta adnotacja zapisana na pięciolinii	!	!	!
!	!	!	!	!	!LO:TX:b:i:t=Seque Gloria V&colon; S&colon;	!	!	!
==	==	==	==	==	==	==	==	==
*-	*-	*-	*-	*-	*-	*-	*-	*-
!!!system-decoration: [(s1,s2,s3,s4)]
!!!RDF**kern: > = above
!!!RDF**kern: < = below
!!!EED: Antoni Szymański
!!!EST: 2021-02-03
!!!ENC: Andrzej Borzym
!!!END: 2021-01-29
